X:131
L:1/8
M:3/4
K:G
"^Slow" .d.B.A | G3 G AB | d3 d BA | A3 A Bd |{d} e3 d de | (g2 a)bag | e3 g BA | A3 A Bd | e3 :: 
 .g.d.B | G3 .g.d.B | G3 gdB | (AB)(c'b)(ag) | e3 g de | gbac'bd' | e3 g e/d/B | (A2 B)GAB | 
{d} e3 :: GAB | g3 G AB | g3 G AB | b3 a (b/a/)g | e3 d ba | g3 d ba | g3 e (dB)G | (A2 B)ABd | 
{d} e3 :: dBA | G2 edTBA | G2 ba z6 (g/e/)d | e3 d{d} eg | a4 (ba) | (ge) e2 (a/g/)e | 
 (dB) B2 (d/B/)G | A3 B Bd |{d} e3 :|[M:6/8]"^Lively" d | TB2 G GBG | TB2 g dBG | A2 a aga | 
 bag e2 g | d2 e g2 a | b2 g aga | b2 G dBG | ABd e2 :: g | GAB gdB | GAB g2 a | b2 a ged | 
 e2 g a2 (b/a/) | gee ege | dBB B2 (b/a/) | g2 G dBG | ABd e2 :|

